build/communication/SIMCardSolid.svg

<svg xmlns="http://www.w3.org/2000/svg" fill="none" viewBox="0 0 24 24" focusable="false"><path d="M0 0H24V24H0z"/><path fill="#74767B" fill-rule="evenodd" d="M5.75777 7.77251C5.26964 8.32166 5 9.03086 5 9.7656L5 18C5 19.6569 6.34315 21 8 21L16 21C17.6569 21 19 19.6569 19 18L19 6C19 4.34315 17.6569 3 16 3L11.3472 3C10.4903 3 9.67427 3.36644 9.10497 4.00691L5.75777 7.77251ZM8.90446 9C8.18649 9 7.60446 9.58203 7.60446 10.3L7.60446 10.844C7.60446 11.2306 7.91786 11.544 8.30446 11.544L9.98604 11.544C10.345 11.544 10.636 11.835 10.636 12.194C10.636 12.553 10.345 12.844 9.98604 12.844L8.30446 12.844C7.91786 12.844 7.60446 13.1574 7.60446 13.544L7.60446 13.844C7.60446 14.2306 7.91786 14.544 8.30446 14.544L9.98604 14.544C10.345 14.544 10.636 14.835 10.636 15.194C10.636 15.553 10.345 15.844 9.98604 15.844L8.30446 15.844C7.91786 15.844 7.60446 16.1574 7.60446 16.544L7.60446 17.0879C7.60446 17.8058 8.18649 18.3879 8.90446 18.3879L15.0907 18.3879C15.8087 18.3879 16.3907 17.8058 16.3907 17.0879L16.3907 16.544C16.3907 16.1574 16.0773 15.844 15.6907 15.844L13.9545 15.844C13.5955 15.844 13.3045 15.553 13.3045 15.194C13.3045 14.835 13.5955 14.544 13.9545 14.544L15.6907 14.544C16.0773 14.544 16.3907 14.2306 16.3907 13.844L16.3907 13.544C16.3907 13.1574 16.0773 12.844 15.6907 12.844L13.9545 12.844C13.5955 12.844 13.3045 12.553 13.3045 12.194C13.3045 11.835 13.5955 11.544 13.9545 11.544L15.6907 11.544C16.0773 11.544 16.3907 11.2306 16.3907 10.844L16.3907 10.3C16.3907 9.58203 15.8087 9 15.0907 9L8.90446 9Z"/></svg>

<svg xmlns="http://www.w3.org/2000/svg" fill="none" viewBox="0 0 24 24" focusable="false"><path fill="#74767B" fill-rule="evenodd" d="M5.75 7.77C5.26 8.32 5 9.03 5 9.76V18c0 1.65 1.34 3 3 3h8c1.65 0 3-1.35 3-3V6c0-1.66-1.35-3-3-3h-4.66c-.85 0-1.67.36-2.24 1zM8.9 9c-.72 0-1.3.58-1.3 1.3v.54c0 .39.31.7.7.7h1.68c.36 0 .65.29.65.65s-.29.65-.65.65H8.3c-.39 0-.7.31-.7.7v.3c0 .39.31.7.7.7h1.68c.36 0 .65.29.65.65s-.29.65-.65.65H8.3c-.39 0-.7.31-.7.7v.54c0 .72.58 1.3 1.3 1.3h6.19c.71 0 1.3-.58 1.3-1.3v-.54c0-.39-.32-.7-.7-.7h-1.74c-.36 0-.65-.29-.65-.65s.29-.65.65-.65h1.74c.38 0 .7-.31.7-.7v-.3c0-.39-.32-.7-.7-.7h-1.74c-.36 0-.65-.29-.65-.65s.29-.65.65-.65h1.74c.38 0 .7-.31.7-.7v-.54c0-.72-.59-1.3-1.3-1.3z"/></svg>
